resources/haticons/SVG/shop.svg

<!-- Generated by IcoMoon.io -->
<svg version="1.1" xmlns="http://www.w3.org/2000/svg" width="24" height="24" viewBox="0 0 24 24">
<title>shop</title>
<path d="M9 18l7.5-5.016-7.5-3.984v9zM9.984 3.984v2.016h4.031v-2.016h-4.031zM15.984 6h6v12.984q0 0.844-0.563 1.43t-1.406 0.586h-16.031q-0.844 0-1.406-0.586t-0.563-1.43v-12.984h6v-2.016q0-0.844 0.563-1.406t1.406-0.563h4.031q0.844 0 1.406 0.563t0.563 1.406v2.016z"></path>
</svg>

<svg xmlns="http://www.w3.org/2000/svg" width="24" height="24"><path d="M9 18l7.5-5.016L9 9v9zm.984-14.016V6h4.031V3.984H9.984zm6 2.016h6v12.984q0 .844-.563 1.43T20.015 21H3.984q-.844 0-1.406-.586t-.563-1.43V6h6V3.984q0-.844.563-1.406t1.406-.563h4.031q.844 0 1.406.563t.563 1.406V6z"/></svg>
